SVG/delicious.svg

<?xml version="1.0" encoding="utf-8"?>
<!-- Generated by IcoMoon.io -->
<!DOCTYPE svg PUBLIC "-//W3C//DTD SVG 1.1//EN" "http://www.w3.org/Graphics/SVG/1.1/DTD/svg11.dtd">
<svg version="1.1" xmlns="http://www.w3.org/2000/svg" xmlns:xlink="http://www.w3.org/1999/xlink" width="12" height="14" viewBox="0 0 12 14">
<path fill="#444444" d="M11.5 10.75v-3.75h-5.5v-5.5h-3.75q-0.727 0-1.238 0.512t-0.512 1.238v3.75h5.5v5.5h3.75q0.727 0 1.238-0.512t0.512-1.238zM12 3.25v7.5q0 0.93-0.66 1.59t-1.59 0.66h-7.5q-0.93 0-1.59-0.66t-0.66-1.59v-7.5q0-0.93 0.66-1.59t1.59-0.66h7.5q0.93 0 1.59 0.66t0.66 1.59z"></path>
</svg>

<svg xmlns="http://www.w3.org/2000/svg" viewBox="0 0 12 14"><path d="M11.5 10.75V7H6V1.5H2.25q-.727 0-1.238.512T.5 3.25V7H6v5.5h3.75q.727 0 1.238-.512t.512-1.238zm.5-7.5v7.5q0 .93-.66 1.59T9.75 13h-7.5q-.93 0-1.59-.66T0 10.75v-7.5q0-.93.66-1.59T2.25 1h7.5q.93 0 1.59.66T12 3.25z" /></svg>
